assets/images/font-names/arimo.svg

<svg width="38.511" height="11.016"><path d="M25.232 10.869h-1.304V5.845q0-.893-.19-1.358a1.132 1.132 0 00-.125-.232q-.247-.345-.807-.419a2.509 2.509 0 00-.328-.02 1.768 1.768 0 00-.637.11 1.575 1.575 0 00-.696.534q-.389.512-.47 1.355a4.868 4.868 0 00-.021.462v4.592h-1.311V4.636a69.373 69.373 0 00-.001-.481q-.007-.961-.043-1.211h1.245a.252.252 0 01.003.018q.006.045.011.16a8.532 8.532 0 01.001.02l.015.312a72.157 72.157 0 00.003.058q.011.209.026.787h.022a4.213 4.213 0 01.292-.497q.166-.241.348-.416a1.869 1.869 0 01.334-.259 2.241 2.241 0 01.716-.27 3.155 3.155 0 01.624-.059q.901 0 1.425.359a1.631 1.631 0 01.504.566q.122.22.203.496a3.058 3.058 0 01.022.08h.022q.338-.658.793-1.012a2.04 2.04 0 01.199-.138 2.377 2.377 0 01.778-.293 3.281 3.281 0 01.632-.058 3.489 3.489 0 01.648.056q.713.135 1.099.596.498.595.542 1.888a7.53 7.53 0 01.004.25v5.281h-1.304V5.845q0-.893-.19-1.358a1.132 1.132 0 00-.125-.232q-.248-.345-.807-.419a2.509 2.509 0 00-.328-.02 1.86 1.86 0 00-.606.094 1.526 1.526 0 00-.738.547q-.37.493-.455 1.306a4.949 4.949 0 00-.025.514v4.592zm-15.286 0H8.518L7.339 7.852H2.637L1.45 10.869H0L4.211.549h1.59l4.145 10.32zm2.388 0h-1.318V4.79a36.993 36.993 0 00-.011-.879 49.319 49.319 0 00-.033-.967h1.245a244.312 244.312 0 01.02.468q.032.766.037 1.051a5.258 5.258 0 01.001.1h.03a6.431 6.431 0 01.174-.495q.193-.483.418-.756a1.346 1.346 0 01.133-.141 1.344 1.344 0 01.531-.291q.276-.082.626-.082a2.029 2.029 0 01.497.063 2.267 2.267 0 01.038.01V4.08q-.177-.05-.434-.066a4.303 4.303 0 00-.269-.008 1.503 1.503 0 00-.598.115q-.341.146-.58.478a1.848 1.848 0 00-.075.114q-.432.707-.432 2.025v4.131zm25.261-.871a3.067 3.067 0 00.556-.909q.36-.886.36-2.19a8.204 8.204 0 00-.071-1.114q-.175-1.274-.786-1.987-.603-.703-1.68-.912a5.232 5.232 0 00-.994-.088 5.057 5.057 0 00-.885.073q-2.018.359-2.509 2.481a6.889 6.889 0 00-.158 1.547 7.799 7.799 0 00.038.785q.062.615.227 1.121a3.43 3.43 0 00.621 1.152 2.768 2.768 0 00.28.289q.533.475 1.301.657a4.523 4.523 0 001.042.113q.64 0 1.168-.138a2.947 2.947 0 001.49-.88zm-20.303.871h-1.318V2.944h1.318v7.925zm19.834-3.97a8.771 8.771 0 00-.036-.83q-.097-1.013-.451-1.554-.487-.743-1.637-.743-1.157 0-1.673.758-.47.69-.512 2.087a9.359 9.359 0 00-.005.282 7.788 7.788 0 00.041.82q.103.969.469 1.535a1.666 1.666 0 001.207.759 2.612 2.612 0 00.393.029 2.894 2.894 0 00.637-.066q.404-.091.694-.31a1.572 1.572 0 00.364-.386 2.444 2.444 0 00.289-.621q.22-.694.22-1.76zM5.186 2.212l-.198-.608-.066.205q-.183.608-.542 1.56L3.062 6.76h3.859L5.596 3.354a14.133 14.133 0 01-.205-.538 19.209 19.209 0 01-.205-.604zm12.106-.952h-1.318V0h1.318v1.26z" vector-effect="non-scaling-stroke" stroke-linecap="round" fill-rule="evenodd" font-size="12" stroke="#000" stroke-width=".25mm" fill="none"/></svg>

<svg width="38.511" height="11.016" viewBox="0 0 38.511 11.016"><title>Arimo</title><g id="svgGroup" stroke-linecap="round" fill-rule="evenodd" font-size="9pt" stroke="#000" stroke-width="0.25mm" fill="none" style="stroke:#000;stroke-width:0.25mm;fill:none"><path d="M 25.232 10.869 L 23.928 10.869 L 23.928 5.845 Q 23.928 4.952 23.738 4.487 A 1.132 1.132 0 0 0 23.613 4.255 Q 23.366 3.91 22.806 3.836 A 2.509 2.509 0 0 0 22.478 3.816 A 1.768 1.768 0 0 0 21.841 3.926 A 1.575 1.575 0 0 0 21.145 4.46 Q 20.756 4.972 20.675 5.815 A 4.868 4.868 0 0 0 20.654 6.277 L 20.654 10.869 L 19.343 10.869 L 19.343 4.636 A 69.373 69.373 0 0 0 19.342 4.155 Q 19.335 3.194 19.299 2.944 L 20.544 2.944 A 0.252 0.252 0 0 1 20.547 2.962 Q 20.553 3.007 20.558 3.122 A 8.532 8.532 0 0 1 20.559 3.142 Q 20.565 3.281 20.574 3.454 A 72.157 72.157 0 0 0 20.577 3.512 Q 20.588 3.721 20.603 4.299 L 20.625 4.299 A 4.213 4.213 0 0 1 20.917 3.802 Q 21.083 3.561 21.265 3.386 A 1.869 1.869 0 0 1 21.599 3.127 A 2.241 2.241 0 0 1 22.315 2.857 A 3.155 3.155 0 0 1 22.939 2.798 Q 23.84 2.798 24.364 3.157 A 1.631 1.631 0 0 1 24.868 3.723 Q 24.99 3.943 25.071 4.219 A 3.058 3.058 0 0 1 25.093 4.299 L 25.115 4.299 Q 25.453 3.641 25.908 3.287 A 2.04 2.04 0 0 1 26.107 3.149 A 2.377 2.377 0 0 1 26.885 2.856 A 3.281 3.281 0 0 1 27.517 2.798 A 3.489 3.489 0 0 1 28.165 2.854 Q 28.878 2.989 29.264 3.45 Q 29.762 4.045 29.806 5.338 A 7.53 7.53 0 0 1 29.81 5.588 L 29.81 10.869 L 28.506 10.869 L 28.506 5.845 Q 28.506 4.952 28.316 4.487 A 1.132 1.132 0 0 0 28.191 4.255 Q 27.943 3.91 27.384 3.836 A 2.509 2.509 0 0 0 27.056 3.816 A 1.86 1.86 0 0 0 26.45 3.91 A 1.526 1.526 0 0 0 25.712 4.457 Q 25.342 4.95 25.257 5.763 A 4.949 4.949 0 0 0 25.232 6.277 L 25.232 10.869 Z M 9.946 10.869 L 8.518 10.869 L 7.339 7.852 L 2.637 7.852 L 1.45 10.869 L 0 10.869 L 4.211 0.549 L 5.801 0.549 L 9.946 10.869 Z M 12.334 10.869 L 11.016 10.869 L 11.016 4.79 A 36.993 36.993 0 0 0 11.005 3.911 A 49.319 49.319 0 0 0 10.972 2.944 L 12.217 2.944 A 244.312 244.312 0 0 1 12.237 3.412 Q 12.269 4.178 12.274 4.463 A 5.258 5.258 0 0 1 12.275 4.563 L 12.305 4.563 A 6.431 6.431 0 0 1 12.479 4.068 Q 12.672 3.585 12.897 3.312 A 1.346 1.346 0 0 1 13.03 3.171 A 1.344 1.344 0 0 1 13.561 2.88 Q 13.837 2.798 14.187 2.798 A 2.029 2.029 0 0 1 14.684 2.861 A 2.267 2.267 0 0 1 14.722 2.871 L 14.722 4.08 Q 14.545 4.03 14.288 4.014 A 4.303 4.303 0 0 0 14.019 4.006 A 1.503 1.503 0 0 0 13.421 4.121 Q 13.08 4.267 12.841 4.599 A 1.848 1.848 0 0 0 12.766 4.713 Q 12.334 5.42 12.334 6.738 L 12.334 10.869 Z M 37.595 9.998 A 3.067 3.067 0 0 0 38.151 9.089 Q 38.511 8.203 38.511 6.899 A 8.204 8.204 0 0 0 38.44 5.785 Q 38.265 4.511 37.654 3.798 Q 37.051 3.095 35.974 2.886 A 5.232 5.232 0 0 0 34.98 2.798 A 5.057 5.057 0 0 0 34.095 2.871 Q 32.077 3.23 31.586 5.352 A 6.889 6.889 0 0 0 31.428 6.899 A 7.799 7.799 0 0 0 31.466 7.684 Q 31.528 8.299 31.693 8.805 A 3.43 3.43 0 0 0 32.314 9.957 A 2.768 2.768 0 0 0 32.594 10.246 Q 33.127 10.721 33.895 10.903 A 4.523 4.523 0 0 0 34.937 11.016 Q 35.577 11.016 36.105 10.878 A 2.947 2.947 0 0 0 37.595 9.998 Z M 17.292 10.869 L 15.974 10.869 L 15.974 2.944 L 17.292 2.944 L 17.292 10.869 Z M 37.126 6.899 A 8.771 8.771 0 0 0 37.09 6.069 Q 36.993 5.056 36.639 4.515 Q 36.152 3.772 35.002 3.772 Q 33.845 3.772 33.329 4.53 Q 32.859 5.22 32.817 6.617 A 9.359 9.359 0 0 0 32.812 6.899 A 7.788 7.788 0 0 0 32.853 7.719 Q 32.956 8.688 33.322 9.254 A 1.666 1.666 0 0 0 34.529 10.013 A 2.612 2.612 0 0 0 34.922 10.042 A 2.894 2.894 0 0 0 35.559 9.976 Q 35.963 9.885 36.253 9.666 A 1.572 1.572 0 0 0 36.617 9.28 A 2.444 2.444 0 0 0 36.906 8.659 Q 37.126 7.965 37.126 6.899 Z M 5.186 2.212 L 4.988 1.604 L 4.922 1.809 Q 4.739 2.417 4.38 3.369 L 3.062 6.76 L 6.921 6.76 L 5.596 3.354 A 14.133 14.133 0 0 1 5.391 2.816 A 19.209 19.209 0 0 1 5.186 2.212 Z M 17.292 1.26 L 15.974 1.26 L 15.974 0 L 17.292 0 L 17.292 1.26 Z" vector-effect="non-scaling-stroke"/></g></svg>
